svg/Pictogram/pictograms-aem-0003-pressurized_fluid.svg

<?xml version="1.0" encoding="ISO-8859-1" standalone="yes"?>
<svg height="304.014" width="304.015">
  <metadata>
    <rdf:RDF xmlns:cc="http://web.resource.org/cc/" xmlns:dc="http://purl.org/dc/elements/1.1/" xmlns:rdf="http://www.w3.org/1999/02/22-rdf-syntax-ns#">
      <cc:Work rdf:about="">
        <dc:title></dc:title>
        <dc:description></dc:description>
        <dc:subject>
          <rdf:Bag>
            <rdf:li></rdf:li>
          </rdf:Bag>
        </dc:subject>
        <dc:publisher>
          <cc:Agent rdf:about="http://www.unece.org/trans/danger/publi/ghs/pictograms.html">
            <dc:title>Source: UNECE GHS of Classification and Labeling of Chemicals, Source: AEM Pictorial Database, Source: AEM Pictorial Database, Source: AEM Pictorial Database, Source: AEM Pictorial Database</dc:title>
          </cc:Agent>
        </dc:publisher>
        <dc:creator>
          <cc:Agent>
            <dc:title></dc:title>
          </cc:Agent>
        </dc:creator>
        <dc:rights>
          <cc:Agent>
            <dc:title></dc:title>
          </cc:Agent>
        </dc:rights>
        <dc:date></dc:date>
        <dc:format>image/svg+xml</dc:format>
        <dc:type rdf:resource="http://purl.org/dc/dcmitype/StillImage"/>
        <cc:license rdf:resource="http://en.wikipedia.org/wiki/Public_domain"/>
        <dc:language>en</dc:language>
      </cc:Work>
    </rdf:RDF>
  </metadata>
  <defs><marker id="ArrowEnd" markerHeight="3" markerUnits="strokeWidth" markerWidth="4" orient="auto" refX="0" refY="5" viewBox="0 0 10 10"><path d="M 0 0 L 10 5 L 0 10 z"/></marker><marker id="ArrowStart" markerHeight="3" markerUnits="strokeWidth" markerWidth="4" orient="auto" refX="10" refY="5" viewBox="0 0 10 10"><path d="M 10 0 L 0 5 L 10 10 z"/></marker> </defs>
  <g id="g2958" transform="matrix(1.3532768,0,0,1.3532781,-53.207834,-52.192858)">
    <path d="M 240.62 156.6C 236.839 156.87 222.671 160.78 203.644 166.913L 179.054 201.6C 200.233 194.327 222.288 187.69 245.456 181.022C 251.144 179.385 247.069 156.135 240.62 156.596" style="stroke:none; fill-rule:evenodd; fill:#000000"/>
    <path d="M 72.2804 236.018C 74.6124 239.913 75.5344 243.651 74.3434 244.366C 73.1514 245.077 70.2924 242.498 67.9604 238.6C 65.6284 234.706 64.7064 230.967 65.8974 230.252C 67.0934 229.541 69.9484 232.12 72.2804 236.018" style="stroke:none; fill-rule:evenodd; fill:#ffffff"/>
    <path d="M 116.261 176.299C 115.456 179.581 116.839 182.979 114.593 182.518C 112.233 182.034 116.261 176.299 116.261 176.299" style="stroke:none; fill-rule:evenodd; fill:#000000"/>
    <path d="M 123.405 173.245C 126.499 174.616 128.343 177.788 129.351 175.725C 130.409 173.569 123.405 173.245 123.405 173.245" style="stroke:none; fill-rule:evenodd; fill:#000000"/>
    <path d="M 127.171 193.959C 127.671 193.295 126.534 193.827 125.558 193.155C 124.722 192.584 121.952 190.85 121.437 191.698C 120.847 192.659 122.854 193.065 124.858 193.604C 126.261 193.983 126.515 193.889 126.534 193.963C 126.55 194.038 123.397 194.897 121.948 194.815C 119.878 194.69 117.847 194.436 118.101 195.538C 118.323 196.502 121.495 195.737 122.472 195.459C 123.608 195.135 126.671 194.624 127.171 193.963" style="stroke:none; fill-rule:evenodd; fill:#000000"/>
    <path d="M 128.968 193.139C 128.155 192.956 129.362 192.624 129.675 191.483C 129.94 190.506 130.933 187.393 131.87 187.702C 132.944 188.053 131.675 189.663 130.499 191.37C 129.675 192.565 129.417 192.659 129.452 192.725C 129.487 192.795 132.444 191.413 133.495 190.409C 134.995 188.975 136.382 187.467 136.901 188.471C 137.354 189.35 134.44 190.823 133.519 191.241C 132.44 191.729 129.776 193.319 128.968 193.139" style="stroke:none; fill-rule:evenodd; fill:#000000"/>
    <path d="M 248.636 98.0844L 150.546 236.459C 137.284 223.643 144.429 213.276 144.429 213.276L 159.519 190.124C 163.78 183.67 156.87 181.483 156.87 181.483L 129.339 168.35C 129.339 168.35 125.839 165.932 120.179 171.17C 118.624 172.612 118.163 171.057 116.839 171.631C 116.812 171.643 116.78 171.674 116.753 171.69L 128.39 194.245C 137.171 190.663 146.155 187.17 155.03 183.854C 156.444 185.166 157.495 187.424 155.144 190.987L 138.37 216.963C 117.472 225.69 97.3434 235.573 77.7304 247.374C 70.9214 251.471 59.0114 229.791 62.7534 227.1C 77.0034 216.85 101.331 205.319 127.53 194.596L 116.058 172.358C 115.526 172.983 114.991 173.772 114.991 173.772L 89.4804 189.315L 79.8004 200.834C 68.7414 213.967 58.8354 202.678 58.8354 202.678C 67.4804 193.073 78.3044 179.291 78.3044 179.291C 80.0304 176.643 86.1404 173.416 86.1404 173.416L 111.312 158.928C 112.187 158.393 112.46 157.248 111.925 156.377C 111.39 155.502 110.245 155.229 109.374 155.764L 85.0694 169.791C 59.0654 185.975 55.3784 168.35 55.3784 168.35C 70.3544 159.823 78.6904 155.635 83.7144 153.022C 83.7144 153.022 92.4604 149.206 91.9524 148.362C 91.7804 148.073 91.0894 146.866 91.0894 146.866C 65.0544 153.143 67.7024 132.635 67.7024 132.635L 167.812 132.635L 218.499 56.1434L 248.632 98.0844L 248.636 98.0844zM 124.624 164.538C 126.604 160.459 130.253 157.706 134.897 156.78L 134.354 154.069C 128.843 155.166 124.503 158.459 122.136 163.331L 124.62 164.538L 124.624 164.538zM 138.304 156.42C 142.405 156.346 146.999 157.432 151.96 159.651L 153.089 157.127C 147.757 154.741 142.765 153.573 138.253 153.659L 138.304 156.42zM 155.624 161.225C 160.292 162.846 165.546 163.081 170.819 161.905L 170.218 159.209C 165.448 160.272 160.714 160.069 156.53 158.612L 155.624 161.225zM 190.214 158.428L 188.499 148.424L 188.483 148.436L 188.495 148.42L 178.323 148.124L 178.245 150.952L 184.081 151.151L 184.23 151.264C 181.413 154.354 177.741 156.764 173.511 158.26L 174.433 160.866C 179.155 159.194 183.257 156.479 186.394 152.987L 187.472 158.924L 190.214 158.424L 190.214 158.428zM 117.999 166.94C 119.183 163.666 119.765 159.057 119.554 154.604L 116.788 154.737C 116.983 158.842 116.464 163.053 115.397 165.998L 117.995 166.94L 117.999 166.94zM 122.116 140.37L 112.147 138.456L 112.155 138.475L 112.144 138.459L 108.292 147.877L 110.913 148.948L 113.151 143.549L 113.503 143.331C 115.218 145.663 116.046 148.768 116.433 151.186L 119.163 150.752C 118.604 147.241 117.526 144.315 116.019 142.092L 121.616 143.112L 122.116 140.37zM 111.144 168.323C 106.593 167.432 101.507 168.315 96.8234 170.799L 98.1204 173.245C 102.245 171.053 106.683 170.268 110.612 171.038L 111.144 168.323zM 89.3474 182.67L 89.1014 182.518C 90.1944 179.819 92.3394 177.194 95.2304 175.057L 93.5894 172.834C 90.6014 175.038 88.3004 177.745 86.9334 180.596L 85.6164 176.065L 83.2224 176.76L 85.6714 185.506L 85.6834 185.495L 85.6754 185.506L 94.7534 184.834L 94.5624 182.307L 89.3474 182.67" style="stroke:none; fill-rule:evenodd; fill:#000000"/>
    <path d="M 29.6204 265.393L 2.62042 265.393" style="stroke:#000000; stroke-width:0.5; fill:none"/>
    <path d="M 38.6204 274.393L 38.6204 301.393" style="stroke:#000000; stroke-width:0.5; fill:none"/>
    <path d="M 29.6204 38.6204L 2.62042 38.6204" style="stroke:#000000; stroke-width:0.5; fill:none"/>
    <path d="M 38.6204 29.6204L 38.6204 2.62042" style="stroke:#000000; stroke-width:0.5; fill:none"/>
    <path d="M 274.394 38.6204L 301.394 38.6204" style="stroke:#000000; stroke-width:0.5; fill:none"/>
    <path d="M 265.394 29.6204L 265.394 2.62042" style="stroke:#000000; stroke-width:0.5; fill:none"/>
    <path d="M 274.394 265.393L 301.394 265.393" style="stroke:#000000; stroke-width:0.5; fill:none"/>
    <path d="M 265.394 274.393L 265.394 301.393" style="stroke:#000000; stroke-width:0.5; fill:none"/>
  </g>
</svg>

<svg viewBox="0 0 304.01 304.01"><g transform="matrix(1.35328 0 0 1.35328-53.21-52.19)" fill-rule="evenodd"><path d="m240.62 156.6c-3.781.27-17.949 4.18-36.976 10.313l-24.59 34.687c21.18-7.273 43.23-13.91 66.4-20.578 5.688-1.637 1.613-24.887-4.836-24.426"/><path d="m72.28 236.02c2.332 3.895 3.254 7.633 2.063 8.348-1.192.711-4.051-1.868-6.383-5.766-2.332-3.894-3.254-7.633-2.063-8.348 1.196-.711 4.051 1.868 6.383 5.766" fill="#fff"/><path d="m116.26 176.3c-.805 3.282.578 6.68-1.668 6.219-2.36-.484 1.668-6.219 1.668-6.219"/><path d="m123.41 173.25c3.094 1.371 4.938 4.543 5.946 2.48 1.058-2.156-5.946-2.48-5.946-2.48"/><path d="m127.17 193.96c.5-.664-.637-.132-1.613-.804-.836-.571-3.606-2.305-4.121-1.457-.59.961 1.417 1.367 3.421 1.906 1.403.379 1.657.285 1.676.359.016.075-3.137.934-4.586.852-2.07-.125-4.101-.379-3.847.723.222.964 3.394.199 4.371-.079 1.136-.324 4.199-.835 4.699-1.496"/><path d="m128.97 193.14c-.813-.183.394-.515.707-1.656.265-.977 1.258-4.09 2.195-3.781 1.074.351-.195 1.961-1.371 3.668-.824 1.195-1.082 1.289-1.047 1.355.035.07 2.992-1.312 4.04-2.316 1.5-1.434 2.887-2.942 3.406-1.938.453.879-2.461 2.352-3.382 2.77-1.079.488-3.743 2.078-4.551 1.898"/><path d="m248.64 98.08l-98.09 138.37c-13.262-12.816-6.117-23.18-6.117-23.18l15.09-23.15c4.261-6.454-2.649-8.641-2.649-8.641l-27.531-13.13c0 0-3.5-2.418-9.16 2.82-1.555 1.442-2.02-.113-3.34.461-.027.012-.059.043-.086.059l11.637 22.555c8.781-3.582 17.765-7.08 26.64-10.391 1.414 1.312 2.465 3.57.114 7.133l-16.774 25.976c-20.898 8.727-41.03 18.61-60.64 30.411-6.809 4.097-18.719-17.583-14.977-20.274 14.25-10.25 38.578-21.781 64.777-32.504l-11.472-22.24c-.532.625-1.067 1.414-1.067 1.414l-25.511 15.543-9.68 11.519c-11.06 13.13-20.965 1.844-20.965 1.844 8.645-9.605 19.469-23.387 19.469-23.387 1.726-2.648 7.836-5.875 7.836-5.875l25.17-14.488c.875-.535 1.148-1.68.613-2.551-.535-.875-1.68-1.148-2.551-.613l-24.305 14.03c-26 16.184-29.691-1.441-29.691-1.441 14.976-8.527 23.312-12.715 28.336-15.328 0 0 8.746-3.816 8.238-4.66-.172-.289-.863-1.496-.863-1.496-26.03 6.277-23.387-14.231-23.387-14.231h100.11l50.687-76.49 30.13 41.941h.004m-124.01 66.45c1.98-4.079 5.629-6.832 10.273-7.758l-.543-2.711c-5.511 1.097-9.851 4.39-12.218 9.262l2.484 1.207h.004m13.68-8.118c4.101-.074 8.695 1.012 13.656 3.231l1.129-2.524c-5.332-2.386-10.324-3.554-14.836-3.468l.051 2.761m17.32 4.805c4.668 1.621 9.922 1.856 15.195.68l-.601-2.696c-4.77 1.063-9.504.86-13.688-.597l-.906 2.613m34.59-2.797l-1.715-10-.016.012.012-.016-10.172-.296-.078 2.828 5.836.199.149.113c-2.817 3.09-6.489 5.5-10.719 6.996l.922 2.606c4.722-1.672 8.824-4.387 11.961-7.879l1.078 5.937 2.742-.5v.004m-72.22 8.512c1.184-3.274 1.766-7.883 1.555-12.336l-2.766.133c.195 4.105-.324 8.316-1.391 11.261l2.598.942h.004m4.117-26.57l-9.969-1.914.008.019-.011-.016-3.852 9.418 2.621 1.071 2.238-5.399.352-.218c1.715 2.332 2.543 5.437 2.93 7.855l2.73-.434c-.559-3.511-1.637-6.437-3.144-8.66l5.597 1.02.5-2.742m-10.972 27.953c-4.551-.891-9.637-.008-14.321 2.476l1.297 2.446c4.125-2.192 8.563-2.977 12.492-2.207l.532-2.715m-21.797 14.347l-.246-.152c1.093-2.699 3.238-5.324 6.129-7.461l-1.641-2.223c-2.988 2.204-5.289 4.911-6.656 7.762l-1.317-4.531-2.394.695 2.449 8.746.012-.011-.008.011 9.08-.672-.191-2.527-5.215.363"/></g></svg>
